X: 1
T: Funky Kerfunken
M: 7/8
L: 1/8
R: cheeky jig
K: D
C: trad, but not really
r:32
D2E |: "D" F2G2 FED | F2 GA "G" Bcd | "D" A2 FA dAF | "A" E2 E2 EDE |
"D" F2G2 FED | F2 GA "G" Bcd | "D" A2 FA dAF |1 "A" EFE "D" D2DE :|2 "A" EFE "D" D2FA ||
"Bm" d2d2 def | "G" B2B2 BAB | "D" d2d2 def | fed "A" e2 fe |
"Bm" d2d2 def | "G" B2B2 BdB | "D"  A2 FA dAF |1 "A" EFE "D" D2FA :|2 "A" EFE "D" D2DE ||
